X:4681
T:Eddie Kelly's #1
R:jig
D:Dervish: Boys of Sligo
D:Dolores Keane
Z:id:hn-jig-222
M:6/8
K:Edor
~e3 dBA|BAG EDB|DEG e2d|BAG ABd|
~e3 dBA|BAG EDB|DEG e2d|BAF E3:|
|:e2f gfe|beg fed|Beg beg|~f3 e2f|
~g3 edB|AFD FGA|d2e fed|BAF E3:|
